src/assets/icon-wallet.svg

<?xml version="1.0" encoding="UTF-8"?>
<svg width="71px" height="59px" viewBox="0 0 71 59" version="1.1" xmlns="http://www.w3.org/2000/svg" xmlns:xlink="http://www.w3.org/1999/xlink">
    <!-- Generator: sketchtool 62 (101010) - https://sketch.com -->
    <title>67F1537F-A1B0-49BB-9E2F-661786A33971</title>
    <desc>Created with sketchtool.</desc>
    <g id="Symbols" stroke="none" stroke-width="1" fill="none" fill-rule="evenodd">
        <g id="Icon_wallet">
            <g id="Group-17">
                <polyline id="Fill-1" fill="#1C9781" points="16.6047 9.8544 52.3227 0.5004 54.8737 9.8544"></polyline>
                <g id="Group-16" transform="translate(0.000000, 0.420000)">
                    <polyline id="Stroke-2" stroke="#001428" stroke-width="3" stroke-linecap="round" stroke-linejoin="round" points="16.6047 9.4344 52.3227 0.0804 54.8737 9.4344"></polyline>
                    <path d="M61.1262,57.4998 L6.0462,57.4998 C2.9962,57.4998 0.5002,55.0038 0.5002,51.9528 L0.5002,14.8918 C0.5002,11.8408 2.9962,9.3458 6.0462,9.3458 L61.1262,9.3458 C64.1772,9.3458 66.6732,11.8408 66.6732,14.8918 L66.6732,51.9528 C66.6732,55.0038 64.1772,57.4998 61.1262,57.4998" id="Fill-4" fill="#1C9781"></path>
                    <path d="M61.1262,57.4998 L6.0462,57.4998 C2.9962,57.4998 0.5002,55.0038 0.5002,51.9528 L0.5002,14.8918 C0.5002,11.8408 2.9962,9.3458 6.0462,9.3458 L61.1262,9.3458 C64.1772,9.3458 66.6732,11.8408 66.6732,14.8918 L66.6732,51.9528 C66.6732,55.0038 64.1772,57.4998 61.1262,57.4998 Z" id="Stroke-6" stroke="#001428" stroke-width="3" stroke-linecap="round" stroke-linejoin="round"></path>
                    <path d="M67.2073,42.6541 L46.3673,42.6541 C44.5563,42.6541 43.0743,41.1731 43.0743,39.3611 L43.0743,27.4841 C43.0743,25.6731 44.5563,24.1911 46.3673,24.1911 L67.2073,24.1911 C69.0183,24.1911 70.5003,25.6731 70.5003,27.4841 L70.5003,39.3611 C70.5003,41.1731 69.0183,42.6541 67.2073,42.6541" id="Fill-8" fill="#1C9781"></path>
                    <path d="M67.2073,42.6541 L46.3673,42.6541 C44.5563,42.6541 43.0743,41.1731 43.0743,39.3611 L43.0743,27.4841 C43.0743,25.6731 44.5563,24.1911 46.3673,24.1911 L67.2073,24.1911 C69.0183,24.1911 70.5003,25.6731 70.5003,27.4841 L70.5003,39.3611 C70.5003,41.1731 69.0183,42.6541 67.2073,42.6541 Z" id="Stroke-10" stroke="#001428" stroke-width="3" stroke-linecap="round" stroke-linejoin="round"></path>
                    <path d="M55.304,33.4227 C55.304,35.2247 53.843,36.6847 52.041,36.6847 C50.24,36.6847 48.78,35.2247 48.78,33.4227 C48.78,31.6207 50.24,30.1597 52.041,30.1597 C53.843,30.1597 55.304,31.6207 55.304,33.4227" id="Fill-12" fill="#1C9781"></path>
                    <path d="M55.304,33.4227 C55.304,35.2247 53.843,36.6847 52.041,36.6847 C50.24,36.6847 48.78,35.2247 48.78,33.4227 C48.78,31.6207 50.24,30.1597 52.041,30.1597 C53.843,30.1597 55.304,31.6207 55.304,33.4227 Z" id="Stroke-14" stroke="#001428" stroke-width="3" stroke-linecap="round" stroke-linejoin="round"></path>
                </g>
            </g>
        </g>
    </g>
</svg>

<svg xmlns="http://www.w3.org/2000/svg" width="76" height="76" viewBox="0 0 76 76">
    <g fill="none" fill-rule="evenodd">
        <path fill="#1C9781" d="M16.605 9.854L52.323 0.5 54.874 9.854" transform="translate(3)"/>
        <g>
            <path stroke="#001428" stroke-linecap="round" stroke-linejoin="round" stroke-width="3" d="M16.605 9.434L52.323 0.08 54.874 9.434" transform="translate(3) translate(0 .42)"/>
            <path fill="#1C9781" d="M61.126 57.5H6.046C2.996 57.5.5 55.004.5 51.953V14.892c0-3.051 2.496-5.546 5.546-5.546h55.08c3.051 0 5.547 2.495 5.547 5.546v37.06c0 3.052-2.496 5.548-5.547 5.548" transform="translate(3) translate(0 .42)"/>
            <path stroke="#001428" stroke-linecap="round" stroke-linejoin="round" stroke-width="3" d="M61.126 57.5H6.046C2.996 57.5.5 55.004.5 51.953V14.892c0-3.051 2.496-5.546 5.546-5.546h55.08c3.051 0 5.547 2.495 5.547 5.546v37.06c0 3.052-2.496 5.548-5.547 5.548z" transform="translate(3) translate(0 .42)"/>
            <path fill="#1C9781" d="M67.207 42.654h-20.84c-1.81 0-3.293-1.48-3.293-3.293V27.484c0-1.81 1.482-3.293 3.293-3.293h20.84c1.811 0 3.293 1.482 3.293 3.293v11.877c0 1.812-1.482 3.293-3.293 3.293" transform="translate(3) translate(0 .42)"/>
            <path stroke="#001428" stroke-linecap="round" stroke-linejoin="round" stroke-width="3" d="M67.207 42.654h-20.84c-1.81 0-3.293-1.48-3.293-3.293V27.484c0-1.81 1.482-3.293 3.293-3.293h20.84c1.811 0 3.293 1.482 3.293 3.293v11.877c0 1.812-1.482 3.293-3.293 3.293z" transform="translate(3) translate(0 .42)"/>
            <path fill="#1C9781" d="M55.304 33.423c0 1.802-1.461 3.262-3.263 3.262-1.801 0-3.261-1.46-3.261-3.262s1.46-3.263 3.261-3.263c1.802 0 3.263 1.46 3.263 3.263" transform="translate(3) translate(0 .42)"/>
            <path stroke="#001428" stroke-linecap="round" stroke-linejoin="round" stroke-width="3" d="M55.304 33.423c0 1.802-1.461 3.262-3.263 3.262-1.801 0-3.261-1.46-3.261-3.262s1.46-3.263 3.261-3.263c1.802 0 3.263 1.46 3.263 3.263z" transform="translate(3) translate(0 .42)"/>
        </g>
    </g>
</svg>
